X: 1
T: Reuben Butler
N: from Muriel Johnstone and Keith Smith "Vintage Goldring"
N: based on transcription by Jack Campin (c) 2001
C: Dances for 1820 
C: printed by John Sutherland, 9 Calton Street
M: 6/8
L: 1/8
K: F
|: A|"F"FGA c2A|"F"f2A c2A|"Gm"G2g g2a|"Bb"bag "C"fed|
"F"cde fga|"C"gfg "F"afd|"F"cAf cAF|"C"G3   "F"F2:|
B|"F"ABc cdc|"F"cdc cBA|"Gm"D2d ded|"Bb"d<fe "C" d2c|
 "F"ABc cdc|"F"cde "Bb"fed|"F"cAf cAF|"C"G3 "F"F2 B||
"F"ABc cdc|"F"cdc cBA|"Gm"D2d ded|"Bb"d<fe "C"d2c|
"F"cde fga|"C"gfg "F"afd|"F"cAf cAF|"C"G3 "F"F2|]
%%text based on transcription by Jack Campin (c) 2001

